icons/line/folder-open.svg

<svg width="24" height="24" viewBox="0 0 24 24" fill="none" xmlns="http://www.w3.org/2000/svg">
<path d="M20 11V9C20 7.89543 19.1046 7 18 7H12.0704C11.4017 7 10.7772 6.6658 10.4063 6.1094L9.59373 4.8906C9.2228 4.3342 8.59834 4 7.92963 4H5C3.89543 4 3 4.89543 3 6V18C3 18.6667 3.4 20 5 20M20 11H9C7.89543 11 7 11.8954 7 13V18C7 18.6667 6.6 20 5 20M20 11V11C21.1046 11 22 11.8954 22 13V18C22 19.1046 21.1046 20 20 20H5" stroke="currentColor" stroke-width="2" stroke-linecap="round" stroke-linejoin="round"/>
</svg>

<svg width="24" height="24" fill="none" xmlns="http://www.w3.org/2000/svg"><path d="M20 11V9a2 2 0 00-2-2h-5.93a2 2 0 01-1.664-.89l-.812-1.22A2 2 0 007.93 4H5a2 2 0 00-2 2v12c0 .667.4 2 2 2m15-9H9a2 2 0 00-2 2v5c0 .667-.4 2-2 2m15-9v0a2 2 0 012 2v5a2 2 0 01-2 2H5" stroke="currentColor" stroke-width="2" stroke-linecap="round" stroke-linejoin="round"/></svg>
